X: 501
T: Paddy Carey
R: Jig
M: 6/8
L: 1/8
K: G
"G"D2G GFG | "G/B"B2G GFG | "C"E2A "C/B"A2B | "Am"cBA "D"GFE |"G"D2G GFG | B2G GFG | 
"C"FED "Am"DEF | "D"GAB A2G :||:"G"G2B "C"c2e | "G"d2e dBG | "G"G2B "C"c2e | "G"dBG A3 |
"G"G2B "C"c2e | "G"d2e dBG | "C"G3 "Am"BAG |"D"E2F "G"G3:|"C"c2A AGA | "G"B2G GFG | 
"D"F2G A2B | c2A FED |"C"c2A AGA | "G"B2G GFG | "D"FED DEF | "G"GAB A2G :|

